img/bank/img-2.svg

<svg width="36" height="35" viewBox="0 0 36 35" fill="none" xmlns="http://www.w3.org/2000/svg">
<rect y="0.996155" width="36" height="34" rx="11" fill="url(#paint0_linear)"/>
<path d="M24.0819 18.7943C23.6774 18.2905 23.0674 17.9446 22.2515 17.7564C23.2905 17.2457 23.7474 16.379 23.6217 15.1559C23.58 14.7125 23.4525 14.3281 23.24 14.0023C23.0271 13.6765 22.7399 13.4146 22.3768 13.2162C22.014 13.0178 21.6198 12.8667 21.1948 12.7626C20.7694 12.6585 20.2814 12.5829 19.7304 12.536V9.99615H18.1197V12.4654C17.8409 12.4654 17.4155 12.4721 16.8436 12.4855V9.99615H15.2323V12.536C15.0022 12.5427 14.664 12.5462 14.2177 12.5462L12 12.536V14.1887H13.1611C13.6912 14.1887 14.0016 14.4171 14.0921 14.8739V17.7663C14.162 17.7663 14.2177 17.7699 14.2595 17.7766H14.0921V21.8279C14.0364 22.1703 13.8341 22.3419 13.4853 22.3419H12.3243L12 24.1866H14.0921C14.2247 24.1866 14.4163 24.1884 14.6673 24.1912C14.9183 24.1948 15.1066 24.1962 15.2319 24.1962V26.766H16.8432V24.2262C17.136 24.2332 17.5614 24.2364 18.1194 24.2364V26.766H19.7304V24.1962C20.3023 24.1693 20.8097 24.1192 21.2523 24.0451C21.6953 23.971 22.1188 23.8552 22.5233 23.697C22.9278 23.5392 23.266 23.3426 23.5378 23.1075C23.8101 22.8724 24.0347 22.5734 24.2127 22.2106C24.3904 21.8477 24.5036 21.4276 24.5524 20.9507C24.6436 20.017 24.4864 19.298 24.0819 18.7943ZM16.8748 14.2992C16.9235 14.2992 17.0612 14.2974 17.288 14.2942C17.5148 14.2907 17.7032 14.2875 17.853 14.284C18.0029 14.2808 18.2051 14.289 18.4597 14.3091C18.7144 14.3292 18.9287 14.356 19.1031 14.3896C19.2775 14.4231 19.4695 14.4785 19.6783 14.5558C19.8875 14.6331 20.055 14.727 20.1803 14.8379C20.306 14.9487 20.4122 15.0899 20.4994 15.2611C20.5866 15.4323 20.6302 15.6289 20.6302 15.8506C20.6302 16.0388 20.5987 16.21 20.536 16.3649C20.4734 16.5195 20.3792 16.6487 20.2536 16.7529C20.1283 16.857 19.9989 16.9477 19.8663 17.025C19.734 17.1023 19.5648 17.1645 19.3588 17.2114C19.1533 17.2584 18.9738 17.2954 18.8203 17.3223C18.6667 17.3491 18.4751 17.3678 18.245 17.3777C18.0149 17.3876 17.8405 17.3946 17.7218 17.3978C17.6031 17.401 17.4412 17.401 17.2353 17.3978C17.0294 17.3946 16.9092 17.3929 16.8744 17.3929L16.8748 14.2992ZM21.2736 21.1625C21.2073 21.3171 21.1219 21.4516 21.0175 21.566C20.9127 21.68 20.7749 21.781 20.6042 21.8682C20.4335 21.9557 20.2678 22.0259 20.1074 22.08C19.9469 22.134 19.7534 22.1806 19.527 22.2212C19.3002 22.2614 19.1016 22.29 18.9305 22.3069C18.7598 22.3239 18.5557 22.3373 18.3187 22.3472C18.0816 22.3571 17.8966 22.362 17.7643 22.362C17.6317 22.362 17.4643 22.3602 17.262 22.3571C17.0598 22.3539 16.9308 22.3521 16.8748 22.3521V18.9453C16.9304 18.9453 17.0961 18.9422 17.3716 18.9351C17.6471 18.9284 17.8721 18.9252 18.0465 18.9252C18.2209 18.9252 18.4616 18.9351 18.7686 18.9556C19.0753 18.9757 19.3332 19.0057 19.5428 19.0459C19.752 19.0862 19.9802 19.1483 20.2279 19.2323C20.4756 19.3163 20.676 19.4187 20.8295 19.5398C20.983 19.6609 21.112 19.8151 21.2164 20.0033C21.3212 20.1914 21.3736 20.4064 21.3736 20.6482C21.3729 20.8367 21.3399 21.0079 21.2736 21.1625Z" fill="white"/>
<defs>
<linearGradient id="paint0_linear" x1="8" y1="2.99616" x2="28" y2="34.9962" gradientUnits="userSpaceOnUse">
<stop stop-color="#FFA131"/>
<stop offset="1" stop-color="#D67B0E"/>
</linearGradient>
</defs>
</svg>

<svg width="36" height="35" fill="none" xmlns="http://www.w3.org/2000/svg"><rect y=".996" width="36" height="34" rx="11" fill="url(#paint0_linear)"/><path d="M24.082 18.794c-.405-.503-1.015-.85-1.83-1.038 1.039-.51 1.495-1.377 1.37-2.6a2.506 2.506 0 00-.382-1.154 2.362 2.362 0 00-.863-.786 4.863 4.863 0 00-1.182-.453 9.646 9.646 0 00-1.465-.227v-2.54h-1.61v2.47c-.28 0-.704.006-1.276.02v-2.49h-1.612v2.54c-.23.007-.568.01-1.014.01L12 12.536v1.653h1.161c.53 0 .84.228.931.685v2.892c.07 0 .126.004.167.01h-.167v4.052c-.056.342-.258.514-.607.514h-1.16L12 24.187h2.092c.133 0 .324.001.575.004.251.004.44.005.565.005v2.57h1.611v-2.54c.293.007.718.01 1.276.01v2.53h1.611v-2.57c.572-.027 1.08-.077 1.522-.15.443-.075.867-.19 1.271-.349a3.454 3.454 0 001.015-.59c.272-.235.497-.534.675-.896.177-.363.29-.783.34-1.26.09-.934-.067-1.653-.471-2.157zM16.875 14.3a48.786 48.786 0 00.978-.015c.15-.003.352.005.607.025.254.02.469.047.643.08.174.034.366.09.575.167.21.077.377.171.502.282.126.11.232.252.32.423.087.171.13.368.13.59 0 .188-.031.359-.094.514a.968.968 0 01-.282.388 2.863 2.863 0 01-.388.272 1.78 1.78 0 01-.507.186c-.206.047-.385.084-.539.111a4.571 4.571 0 01-.575.056 12.106 12.106 0 01-1.01.02 43.26 43.26 0 00-.36-.005V14.3zm4.399 6.864a1.432 1.432 0 01-.257.403 1.45 1.45 0 01-.413.302 3.51 3.51 0 01-.497.212c-.16.054-.354.1-.58.141a7.955 7.955 0 01-1.208.126 14.15 14.15 0 01-1.057.01 35.042 35.042 0 00-.387-.005v-3.407c.055 0 .221-.003.497-.01a11.807 11.807 0 011.397.02c.306.02.564.05.774.09.209.041.437.103.685.187.248.084.448.187.601.308.154.12.283.275.387.463a1.3 1.3 0 01.158.645c-.001.189-.034.36-.1.515z" fill="#fff"/><defs><linearGradient id="paint0_linear" x1="8" y1="2.996" x2="28" y2="34.996" gradientUnits="userSpaceOnUse"><stop stop-color="#FFA131"/><stop offset="1" stop-color="#D67B0E"/></linearGradient></defs></svg>
